X: 088
M: C|
L: 1/8
K: G
dBAB G2AB | cAFA DFAc |\
|: Bc |\
dBed d2Bc | dBed d2Bc |
dBgf edcB | BAAA A2Bc |\
dBAB G2AB | cAFA DFAc |\

